symbolic/32x32/apps/luckyBackup.svg

<svg xmlns="http://www.w3.org/2000/svg" width="32" height="32" version="1">
 <path style="opacity:0.2" d="M 29.841797,19 C 28.874549,25.799157 23.074744,31 16,31 11.673436,31 7.81221,29.030775 5.244141,25.947266 L 3.439453,27.751953 A 0.84385747,0.84385747 0 0 1 2.832031,28 0.84385747,0.84385747 0 0 1 2,27.15625 v -7.3125 A 0.84385747,0.84385747 0 0 1 2.84375,19 h 5.421875 1.890625 a 0.84385747,0.84385747 0 0 1 0.597656,1.439453 l -1.230468,1.230469 c 0.05845,0.08114 0.114468,0.163474 0.175781,0.242187 0.108356,0.138762 0.222749,0.273086 0.339843,0.404297 0.03831,0.04299 0.07409,0.08873 0.113282,0.13086 0.09818,0.105518 0.203079,0.204766 0.30664,0.304687 0.110966,0.10693 0.224815,0.210115 0.341797,0.310547 0.101555,0.08726 0.200875,0.175764 0.306641,0.257812 0.0051,0.004 0.01048,0.0077 0.01563,0.01172 0.193785,0.14948 0.396221,0.288404 0.603515,0.419922 0.108951,0.06918 0.219732,0.135307 0.332032,0.199219 0.188755,0.107281 0.38214,0.204908 0.580078,0.296875 0.125156,0.05831 0.252481,0.112181 0.380859,0.164062 0.202622,0.08155 0.4087,0.155655 0.619141,0.220703 0.0987,0.0307 0.196703,0.06292 0.296875,0.08984 0.274195,0.07311 0.554893,0.133857 0.839844,0.177735 0.08781,0.0137 0.177004,0.0224 0.265625,0.0332 C 15.356457,24.971405 15.674372,25 16,25 c 3.645852,-0.0026 6.828772,-2.469918 7.740234,-6 z"/>
 <circle style="fill:#ffffff" cx="16" cy="16" r="11"/>
 <path style="opacity:0.1" d="m 16,3 c 4.326176,0 8.189741,1.9657968 10.757812,5.0488281 L 28.560547,6.2460938 A 0.84385747,0.84385747 0 0 1 29.167969,6 0.84385747,0.84385747 0 0 1 30,6.84375 v 7.3125 A 0.84385747,0.84385747 0 0 1 29.15625,15 h -7.3125 a 0.84385747,0.84385747 0 0 1 -0.597656,-1.439453 l 1.228515,-1.228516 c -0.01077,-0.01492 -0.01842,-0.03204 -0.0293,-0.04687 -0.105685,-0.144613 -0.215347,-0.285172 -0.330078,-0.421875 -0.145938,-0.173539 -0.299033,-0.339506 -0.458984,-0.5 C 21.57091,11.277536 21.487478,11.18915 21.398438,11.107427 21.189939,10.916349 20.96815,10.738676 20.740234,10.570318 20.640824,10.496852 20.540243,10.424297 20.4375,10.355474 20.199916,10.196465 19.953864,10.051282 19.699219,9.9179738 19.594457,9.8630328 19.48816,9.8101027 19.380859,9.7597706 19.10963,9.6329005 18.831699,9.5181719 18.544922,9.42188 18.454952,9.391506 18.362748,9.367063 18.271484,9.339849 17.955372,9.246227 17.633853,9.1636665 17.302734,9.1093802 17.248694,9.1004102 17.193033,9.0977272 17.138672,9.0898492 16.765962,9.0366149 16.387425,9 16,9 12.354148,9.00261 9.171228,11.469918 8.259766,15 H 2.158203 C 3.125451,8.200843 8.925256,3 16,3 Z"/>
 <path style="fill:#48a9ff" d="m 16,2 c 4.326176,0 8.189741,1.9657968 10.757812,5.0488281 L 28.560547,5.2460938 A 0.84385747,0.84385747 0 0 1 29.167969,5 0.84385747,0.84385747 0 0 1 30,5.84375 v 7.3125 A 0.84385747,0.84385747 0 0 1 29.15625,14 h -7.3125 a 0.84385747,0.84385747 0 0 1 -0.597656,-1.439453 l 1.228515,-1.228516 c -0.01077,-0.01492 -0.01842,-0.03204 -0.0293,-0.04687 -0.105685,-0.144613 -0.215347,-0.285172 -0.330078,-0.421875 -0.145938,-0.173539 -0.299033,-0.339506 -0.458984,-0.5 C 21.57091,10.277536 21.487478,10.18915 21.398438,10.107427 21.189939,9.9163485 20.96815,9.7386758 20.740234,9.5703175 20.640824,9.4968525 20.540243,9.4242968 20.4375,9.3554738 20.199916,9.1964646 19.953864,9.0512821 19.699219,8.9179738 19.594457,8.8630328 19.48816,8.8101027 19.380859,8.7597706 19.10963,8.6329005 18.831699,8.5181719 18.544922,8.42188 18.454952,8.391506 18.362748,8.367063 18.271484,8.339849 17.955372,8.246227 17.633853,8.1636665 17.302734,8.1093802 17.248694,8.1004102 17.193033,8.0977272 17.138672,8.0898492 16.765962,8.0366149 16.387425,8 16,8 12.354148,8.00261 9.171228,10.469918 8.259766,14 H 2.158203 C 3.125451,7.200843 8.925256,2 16,2 Z"/>
 <path style="fill:#486afb" d="M 29.841797,18 C 28.874549,24.799157 23.074744,30 16,30 11.673436,30 7.81221,28.030775 5.244141,24.947266 L 3.439453,26.751953 A 0.84385747,0.84385747 0 0 1 2.832031,27 0.84385747,0.84385747 0 0 1 2,26.15625 v -7.3125 A 0.84385747,0.84385747 0 0 1 2.84375,18 h 5.421875 1.890625 a 0.84385747,0.84385747 0 0 1 0.597656,1.439453 l -1.230468,1.230469 c 0.05845,0.08114 0.114468,0.163474 0.175781,0.242187 0.108356,0.138762 0.222749,0.273086 0.339843,0.404297 0.03831,0.04299 0.07409,0.08873 0.113282,0.13086 0.09818,0.105518 0.203079,0.204766 0.30664,0.304687 0.110966,0.10693 0.224815,0.210115 0.341797,0.310547 0.101555,0.08726 0.200875,0.175764 0.306641,0.257812 0.0051,0.004 0.01048,0.0077 0.01563,0.01172 0.193785,0.14948 0.396221,0.288404 0.603515,0.419922 0.108951,0.06918 0.219732,0.135307 0.332032,0.199219 0.188755,0.107281 0.38214,0.204908 0.580078,0.296875 0.125156,0.05831 0.252481,0.112181 0.380859,0.164062 0.202622,0.08155 0.4087,0.155655 0.619141,0.220703 0.0987,0.0307 0.196703,0.06292 0.296875,0.08984 0.274195,0.07311 0.554893,0.133857 0.839844,0.177735 0.08781,0.0137 0.177004,0.0224 0.265625,0.0332 C 15.356457,23.971405 15.674372,24 16,24 c 3.645852,-0.0026 6.828772,-2.469918 7.740234,-6 z"/>
 <path style="opacity:0.2;fill:#ffffff" d="M 16,2 C 8.925256,2 3.1254511,7.200843 2.1582031,14 h 0.1875 C 3.7134592,7.6988001 9.2772993,3 16,3 20.326176,3 24.189741,4.9657968 26.757812,8.0488281 L 28.560547,6.2460938 C 28.721596,6.0855761 28.940609,5.9968443 29.167969,6 29.629352,6.0064668 29.999987,6.382322 30,6.84375 v -1 C 29.999987,5.382322 29.629352,5.0064668 29.167969,5 c -0.22736,-0.00316 -0.446373,0.085576 -0.607422,0.2460938 L 26.757812,7.0488281 C 24.189741,3.9657968 20.326176,2 16,2 Z"/>
</svg>

<svg xmlns="http://www.w3.org/2000/svg" width="32" height="32" version="1"><path style="opacity:.2" d="M29.842 19C28.875 25.8 23.075 31 16 31c-4.327 0-8.188-1.97-10.756-5.053L3.44 27.752a.844.844 0 0 1-.607.248.844.844 0 0 1-.832-.844v-7.312A.844.844 0 0 1 2.844 19H10.156a.844.844 0 0 1 .598 1.44l-1.23 1.23c.058.081.114.163.175.242.109.139.223.273.34.404.038.043.074.09.113.131.099.106.203.205.307.305.111.107.225.21.342.31.101.088.2.176.306.258l.016.012a8.027 8.027 0 0 0 2.516 1.3c.098.032.196.064.297.09.274.074.554.135.84.178.087.014.176.023.265.034.315.037.633.066.959.066a8 8 0 0 0 7.74-6z"/><circle style="fill:#fff" cx="16" cy="16" r="11"/><path style="opacity:.1" d="M16 3c4.326 0 8.19 1.966 10.758 5.049l1.803-1.803A.844.844 0 0 1 29.168 6a.844.844 0 0 1 .832.844v7.312a.844.844 0 0 1-.844.844h-7.312a.844.844 0 0 1-.598-1.44l1.229-1.228c-.011-.015-.019-.032-.03-.047a7.973 7.973 0 0 0-.789-.922c-.085-.085-.169-.174-.258-.256a8.057 8.057 0 0 0-.658-.537 7.974 7.974 0 0 0-1.36-.81 7.935 7.935 0 0 0-.835-.338c-.09-.03-.182-.055-.274-.082a7.926 7.926 0 0 0-.968-.23c-.054-.01-.11-.012-.164-.02A8.03 8.03 0 0 0 16 9a8 8 0 0 0-7.74 6H2.158C3.125 8.2 8.925 3 16 3z"/><path style="fill:#48a9ff" d="M16 2c4.326 0 8.19 1.966 10.758 5.049l1.803-1.803A.844.844 0 0 1 29.168 5a.844.844 0 0 1 .832.844v7.312a.844.844 0 0 1-.844.844h-7.312a.844.844 0 0 1-.598-1.44l1.229-1.228c-.011-.015-.019-.032-.03-.047a7.973 7.973 0 0 0-.789-.922c-.085-.085-.169-.174-.258-.256a8.057 8.057 0 0 0-.658-.537 7.974 7.974 0 0 0-1.36-.81 7.935 7.935 0 0 0-.835-.338c-.09-.03-.182-.055-.274-.082a7.926 7.926 0 0 0-.968-.23c-.054-.01-.11-.012-.164-.02A8.03 8.03 0 0 0 16 8a8 8 0 0 0-7.74 6H2.158C3.125 7.2 8.925 2 16 2z"/><path style="fill:#486afb" d="M29.842 18C28.875 24.8 23.075 30 16 30c-4.327 0-8.188-1.97-10.756-5.053L3.44 26.752a.844.844 0 0 1-.607.248.844.844 0 0 1-.832-.844v-7.312A.844.844 0 0 1 2.844 18H10.156a.844.844 0 0 1 .598 1.44l-1.23 1.23c.058.081.114.163.175.242.109.139.223.273.34.404.038.043.074.09.113.131.099.106.203.205.307.305.111.107.225.21.342.31.101.088.2.176.306.258l.016.012a8.027 8.027 0 0 0 2.516 1.3c.098.032.196.064.297.09.274.074.554.135.84.178.087.014.176.023.265.034.315.037.633.066.959.066a8 8 0 0 0 7.74-6z"/><path style="opacity:.2;fill:#fff" d="M16 2C8.925 2 3.125 7.2 2.158 14h.188C3.713 7.699 9.277 3 16 3c4.326 0 8.19 1.966 10.758 5.049l1.803-1.803A.844.844 0 0 1 30 6.844v-1a.844.844 0 0 0-1.44-.598L26.759 7.05A13.965 13.965 0 0 0 16 2z"/></svg>
